assets/svg/icon_post_boldtext_off.svg

<svg width="24" height="24" viewBox="0 0 24 24" fill="none" xmlns="http://www.w3.org/2000/svg">
<path d="M8.8 12H12C13.3255 12 14.4 10.9255 14.4 9.6C14.4 8.27452 13.3255 7.2 12 7.2H10.0174C9.34504 7.2 8.8 7.74504 8.8 8.41739V12ZM8.8 12H12.8C14.1255 12 15.2 13.0745 15.2 14.4C15.2 15.7255 14.1255 16.8 12.8 16.8H9.74118C9.22138 16.8 8.8 16.3786 8.8 15.8588V12ZM12 20C8.22876 20 6.34315 20 5.17157 18.8284C4 17.6569 4 15.7712 4 12C4 8.22876 4 6.34315 5.17157 5.17157C6.34315 4 8.22876 4 12 4C15.7712 4 17.6569 4 18.8284 5.17157C20 6.34315 20 8.22876 20 12C20 15.7712 20 17.6569 18.8284 18.8284C17.6569 20 15.7712 20 12 20Z" stroke="#0166FF" stroke-width="1.2"/>
</svg>

<svg xmlns="http://www.w3.org/2000/svg" width="24" height="24" fill="none"><path stroke="#0166FF" stroke-width="1.2" d="M8.8 12H12a2.4 2.4 0 1 0 0-4.8h-1.983c-.672 0-1.217.545-1.217 1.217zm0 0h4a2.4 2.4 0 1 1 0 4.8H9.741a.94.94 0 0 1-.941-.941zm3.2 8c-3.771 0-5.657 0-6.828-1.172S4 15.771 4 12s0-5.657 1.172-6.828S8.229 4 12 4s5.657 0 6.828 1.172S20 8.229 20 12s0 5.657-1.172 6.828S15.771 20 12 20Z"/></svg>
